src/assets/images/icon_search.svg

<svg width="20" height="20" viewBox="0 0 20 20" fill="none" xmlns="http://www.w3.org/2000/svg">
<g id="search ">
<path id="Vector" d="M9.29227 2.5C5.54932 2.5 2.5 5.54932 2.5 9.29227C2.5 13.0352 5.54932 16.0845 9.29227 16.0845C10.9113 16.0845 12.3997 15.5126 13.5685 14.5621L16.2904 17.284C16.3551 17.3514 16.4327 17.4052 16.5185 17.4423C16.6043 17.4794 16.6967 17.499 16.7901 17.5C16.8836 17.5009 16.9763 17.4832 17.0629 17.4479C17.1494 17.4125 17.2281 17.3603 17.2942 17.2942C17.3603 17.2281 17.4125 17.1494 17.4479 17.0629C17.4832 16.9763 17.5009 16.8836 17.5 16.7901C17.499 16.6967 17.4794 16.6043 17.4423 16.5185C17.4052 16.4327 17.3514 16.3551 17.284 16.2904L14.5621 13.5685C15.5126 12.3997 16.0845 10.9113 16.0845 9.29227C16.0845 5.54932 13.0352 2.5 9.29227 2.5ZM9.29227 3.9053C12.2757 3.9053 14.6792 6.3088 14.6792 9.29227C14.6792 10.7456 14.106 12.0587 13.176 13.026C13.1187 13.0681 13.0681 13.1187 13.026 13.176C12.0587 14.106 10.7456 14.6792 9.29227 14.6792C6.3088 14.6792 3.9053 12.2757 3.9053 9.29227C3.9053 6.3088 6.3088 3.9053 9.29227 3.9053Z" fill="#0D1011"/>
</g>
</svg>

<svg width="20" height="20" fill="none" xmlns="http://www.w3.org/2000/svg"><path d="M9.292 2.5C5.55 2.5 2.5 5.55 2.5 9.292c0 3.743 3.05 6.792 6.792 6.792a6.757 6.757 0 0 0 4.277-1.522l2.721 2.722a.703.703 0 1 0 .994-.994l-2.722-2.721a6.757 6.757 0 0 0 1.522-4.277c0-3.743-3.049-6.792-6.792-6.792zm0 1.405a5.376 5.376 0 0 1 5.387 5.387 5.365 5.365 0 0 1-1.503 3.734.702.702 0 0 0-.15.15 5.365 5.365 0 0 1-3.734 1.503 5.376 5.376 0 0 1-5.387-5.387 5.376 5.376 0 0 1 5.387-5.387z" fill="#0D1011"/></svg>
